img/deco/icon_map.svg

<?xml version="1.0" encoding="UTF-8" standalone="no"?>
<!-- Created with Inkscape (http://www.inkscape.org/) -->

<svg
   xmlns:dc="http://purl.org/dc/elements/1.1/"
   xmlns:cc="http://creativecommons.org/ns#"
   xmlns:rdf="http://www.w3.org/1999/02/22-rdf-syntax-ns#"
   xmlns:svg="http://www.w3.org/2000/svg"
   xmlns="http://www.w3.org/2000/svg"
   version="1.1"
   width="412"
   height="411.69501"
   viewBox="0 0 412 411.69501"
   id="svg2"
   xml:space="preserve"><metadata
     id="metadata9"><rdf:RDF><cc:Work
         rdf:about=""><dc:format>image/svg+xml</dc:format><dc:type
           rdf:resource="http://purl.org/dc/dcmitype/StillImage" /><dc:title></dc:title></cc:Work></rdf:RDF></metadata><defs
     id="defs7" /><path
     d="m 302.475,261.906 c -7.611,0 -15.009,-1.527 -21.987,-4.541 l 8.197,-18.99 c 4.376,1.889 9.015,2.846 13.79,2.846 3.912,0 7.766,-0.65 11.452,-1.936 l 6.803,19.533 c -5.879,2.049 -12.022,3.088 -18.255,3.088 z m -191.732,-0.387 c -6.571,0 -13.026,-1.152 -19.186,-3.424 l 7.152,-19.406 c 3.862,1.424 7.912,2.145 12.033,2.145 4.562,0 9.011,-0.877 13.223,-2.605 l 7.855,19.135 c -6.715,2.756 -13.807,4.155 -21.077,4.155 z m 152.207,-13.752 -29.136,-16.592 10.235,-17.975 29.137,16.592 -10.236,17.975 z m -113.324,-0.346 -10.633,-17.742 28.761,-17.236 10.633,17.744 -28.761,17.234 z m 68.777,-24.722 c -4.266,-1.781 -8.776,-2.686 -13.407,-2.686 -4.053,0.002 -8.039,0.701 -11.845,2.078 l -7.037,-19.451 c 6.069,-2.195 12.421,-3.31 18.88,-3.311 7.383,0 14.573,1.44 21.378,4.279 l -7.969,19.091 z m 128.652,-2.87 c -9.389,0 -17,7.611 -17,17 0,9.389 7.611,17 17,17 9.389,0 17,-7.611 17,-17 0,-9.389 -7.612,-17 -17,-17 z m -282,0 c -9.389,0 -17,7.611 -17,17 0,9.389 7.611,17 17,17 9.389,0 17,-7.611 17,-17 0,-9.389 -7.612,-17 -17,-17 z M 412,65.152 C 412,29.172 382.829,0 346.848,0 c -35.983,0 -65.155,29.172 -65.155,65.152 0,53.506 51.245,59.164 65.155,140.542 C 360.758,124.314 412,118.658 412,65.152 z m -88.519,-1.579 c 0,-12.905 10.46,-23.367 23.366,-23.367 12.904,0 23.365,10.462 23.365,23.367 0,12.903 -10.461,23.364 -23.365,23.364 -12.906,0 -23.366,-10.461 -23.366,-23.364 z m 58.469,124.815 v 143.451 l -74.962,40.703 v -90.213 h -15.023 v 88.572 l -81.806,-52.91 v -75.412 h -14.328 v 75.412 l -79.801,52.91 v -88.572 h -15.027 v 90.213 L 30.05,331.839 V 104.907 l 70.953,37.941 v 75.981 h 15.027 v -75.292 l 79.801,-41.385 v 78.927 h 14.328 v -78.927 l 70.951,35.894 C 270.816,125.078 260.104,110.627 254.908,90.856 L 202.995,64.447 109.184,113.19 0,55.09 v 294.277 l 109.185,62.328 93.811,-62.32 95.814,62.32 L 412,349.367 V 138.779 c -0.664,0.834 -1.326,1.664 -1.983,2.487 -10.782,13.499 -21.106,26.437 -28.067,47.122 z"
     id="map-2-icon" /></svg>

<?xml version="1.0" encoding="utf-8"?>
<!-- Generator: Adobe Illustrator 16.0.0, SVG Export Plug-In . SVG Version: 6.00 Build 0)  -->
<!DOCTYPE svg PUBLIC "-//W3C//DTD SVG 1.1//EN" "http://www.w3.org/Graphics/SVG/1.1/DTD/svg11.dtd">
<svg version="1.1" xmlns="http://www.w3.org/2000/svg" xmlns:xlink="http://www.w3.org/1999/xlink" x="0px" y="0px" width="412px"
	 height="411.695px" viewBox="0 0 412 411.695" enable-background="new 0 0 412 411.695" xml:space="preserve">
<g id="Layer_2">
	<rect fill="#FFFFFF" width="412" height="411.695"/>
</g>
<g id="svg2" xmlns:svg="http://www.w3.org/2000/svg" xmlns:rdf="http://www.w3.org/1999/02/22-rdf-syntax-ns#" xmlns:cc="http://creativecommons.org/ns#" xmlns:dc="http://purl.org/dc/elements/1.1/">
	<path id="map-2-icon" d="M302.475,261.906c-7.61,0-15.009-1.527-21.986-4.541l8.197-18.99c4.375,1.889,9.015,2.846,13.789,2.846
		c3.912,0,7.767-0.65,11.452-1.936l6.804,19.533C314.851,260.867,308.708,261.906,302.475,261.906z M110.743,261.52
		c-6.571,0-13.026-1.152-19.186-3.424l7.152-19.406c3.862,1.424,7.912,2.145,12.033,2.145c4.562,0,9.011-0.877,13.223-2.605
		l7.855,19.136C125.105,260.12,118.013,261.52,110.743,261.52z M262.95,247.768l-29.136-16.593l10.234-17.975l29.137,16.592
		L262.95,247.768z M149.626,247.421l-10.633-17.741l28.761-17.236l10.633,17.744L149.626,247.421z M218.402,222.699
		c-4.266-1.781-8.775-2.686-13.406-2.686c-4.053,0.002-8.039,0.7-11.845,2.077l-7.037-19.451c6.069-2.195,12.421-3.31,18.88-3.311
		c7.383,0,14.572,1.44,21.378,4.279L218.402,222.699L218.402,222.699z M347.055,219.829c-9.389,0-17,7.61-17,17
		c0,9.389,7.611,17,17,17c9.39,0,17-7.611,17-17C364.055,227.439,356.443,219.829,347.055,219.829z M65.055,219.829
		c-9.389,0-17,7.61-17,17c0,9.389,7.611,17,17,17c9.389,0,17-7.611,17-17C82.055,227.439,74.443,219.829,65.055,219.829z
		 M412,65.152C412,29.172,382.829,0,346.848,0c-35.982,0-65.154,29.172-65.154,65.152c0,53.506,51.244,59.164,65.154,140.542
		C360.758,124.314,412,118.658,412,65.152z M323.481,63.573c0-12.905,10.46-23.367,23.365-23.367
		c12.904,0,23.365,10.462,23.365,23.367c0,12.903-10.461,23.364-23.365,23.364C333.941,86.937,323.481,76.476,323.481,63.573z
		 M381.95,188.388v143.451l-74.962,40.703v-90.213h-15.023V370.9l-81.806-52.909v-75.412h-14.328v75.412L116.03,370.9v-88.571
		h-15.027v90.213L30.05,331.839V104.907l70.953,37.941v75.981h15.027v-75.292l79.801-41.385v78.927h14.328v-78.927l70.95,35.894
		c-10.293-12.968-21.006-27.419-26.201-47.19l-51.913-26.409l-93.811,48.743L0,55.09v294.277l109.185,62.328l93.811-62.32
		l95.814,62.32L412,349.367V138.779c-0.664,0.834-1.326,1.664-1.983,2.487C399.235,154.765,388.911,167.703,381.95,188.388z"/>
</g>
</svg>
